tools/download-figma-icons/icons/action/arrow-right.svg

<svg width="24" height="24" viewBox="0 0 24 24" fill="none" xmlns="http://www.w3.org/2000/svg">
<path fill-rule="evenodd" clip-rule="evenodd" d="M21.1816 11.4704C21.1816 11.4689 21.1816 11.4674 21.1816 11.4651C21.1816 11.4644 21.1824 11.4636 21.1824 11.4629C21.1816 11.3196 21.1516 11.1831 21.1029 11.0564C21.1006 11.0504 21.0991 11.0451 21.0969 11.0391C21.0399 10.8989 20.9551 10.7729 20.8501 10.6686L15.0114 4.82987C14.5719 4.39037 13.8601 4.39037 13.4206 4.82987C12.9811 5.26862 12.9811 5.98112 13.4206 6.42062L17.3506 10.3506L4.12138 10.3926C3.50038 10.3949 2.99788 10.9004 3.00013 11.5214C3.00163 12.1424 3.50563 12.6426 4.12513 12.6426H4.12888L17.3326 12.6006L13.3171 16.6161C12.8776 17.0556 12.8776 17.7674 13.3171 18.2069C13.5369 18.4266 13.8241 18.5369 14.1121 18.5369C14.4001 18.5369 14.6881 18.4266 14.9079 18.2069L20.8531 12.2624L20.8539 12.2609C20.9574 12.1566 21.0406 12.0321 21.0976 11.8934C21.0999 11.8889 21.1006 11.8836 21.1021 11.8784C21.1524 11.7516 21.1809 11.6144 21.1816 11.4704Z" fill="black"/>
</svg>

<svg width="24" height="24" viewBox="0 0 24 24" fill="none" xmlns="http://www.w3.org/2000/svg"><path fill-rule="evenodd" clip-rule="evenodd" d="M21.182 11.47v-.007c0-.143-.03-.28-.08-.407l-.005-.017a1.115 1.115 0 0 0-.247-.37l-5.839-5.84a1.124 1.124 0 1 0-1.59 1.592l3.93 3.93-13.23.042a1.125 1.125 0 0 0 .004 2.25h.004l13.204-.042-4.016 4.015a1.124 1.124 0 1 0 1.59 1.59l5.946-5.944v-.001c.104-.104.188-.229.245-.368l.004-.015c.05-.126.079-.264.08-.408Z" fill="currentColor"/></svg>
